**kern	**kern	**kern
*staff3	*staff2	*staff1
*tb32	*tb32	*tb32
*clefF4	*clefF4	*clefG2
*k[f#c#g#]	*k[f#c#g#]	*k[f#c#g#]
*M2/4	*M2/4	*M2/4
*A:	*A:	*A:
8EE'	8r	8r
=432	=432	=432
8AA'L	2.r	16eeLL
.	.	16e
8EE'	.	16f#
.	.	16e
(8BBJ	.	16f#
.	.	16eJJ
8C#'L)	.	16eeLL
.	.	16e
8AA'	.	16f#
.	.	16e
(8DJ	.	16f#
.	.	16eJJ
=433	=433	=433
8E'L)	2.r	16eeLL
.	.	16e
8BB'	.	16f#
.	.	16e
(8F#J	.	16f#
.	.	16eJJ
8E'L)	.	16g#LL
.	.	16e
8BB'	.	16f#
.	.	16e
(8DJ	.	16f#
.	.	16eJJ
=434	=434	=434
8C#'L)	2.r	16aLL
.	.	16e
8AA'	.	16f#
.	.	16e
(8BBJ	.	16f#
.	.	16eJJ
8C#'L)	.	16eeLL
.	.	16e
8AA'	.	16f#
.	.	16e
(8DJ	.	16f#
.	.	16eJJ
=435	=435	=435
8E'L)	2.r	16eeLL
.	.	16e
8BB'	.	16f#
.	.	16e
(8F#J	.	16f#
.	.	16eJJ
8E'L)	.	16g#LL
.	.	16e
8BB'	.	16f#
.	.	16e
(8DJ	.	16f#
.	.	16eJJ
=436	=436	=436
8C#'L)	2.r	16aLL
.	.	16e
8AA'	.	16f#
.	.	16e
(8C#J	.	16f#
.	.	16eJJ
8BB'L)	.	16g#LL
.	.	16d
8EE'	.	16e
.	.	16d
8BBJ	.	16e
.	.	16dJJ
=437	=437	=437
8AA'L	2.r	4c# 4a
(8A	.	.
8F#J	.	8r
8E'L)	.	8r
(8F#	.	(8aL
8DJ	.	8f#J)
=438	=438	=438
8C#'L)	2.r	16ALL
.	.	16e
8AA'	.	16A
.	.	16e
(8C#J	.	16A
.	.	16eJJ
8BB'L)	.	16dLL 16g#
.	.	16e
8EE'	.	16d 16g#
.	.	16e
(8BBJ	.	16d 16g#
.	.	16eJJ
=439	=439	=439
8AA'L)	2.r	4c# 4a
(8A	.	.
8F#J	.	8r
8E'L)	.	8r
(8F#	.	(8aL
8DJ	.	8f#J)
=440	=440	=440
8C#'L)	2.r	16ALL
.	.	16e
8AA'	.	16A
.	.	16e
(8C#J	.	16A
.	.	16eJJ
8BB'L)	.	16dLL 16g#
.	.	16e
8EE'	.	16d 16g#
.	.	16e
(8BBJ	.	16d 16g#
.	.	16eJJ
=	=	=
8AA'L)	4.r	4c# 4a
8EE'	.	.
8CC#'J	.	8r
4AAA	4r	4r
8r	8r	8r
*||	*||	*||
*-	*-	*-
